src/assets/icon/add-folder.svg

<svg width="24" height="24" viewBox="0 0 24 24" fill="none" xmlns="http://www.w3.org/2000/svg">
<path d="M20.7545 7.88909H19.2054C19.0698 7.88909 18.9599 7.76968 18.9599 7.62239V5.9391C18.9599 5.79181 18.8501 5.6724 18.7145 5.6724H17.9813C17.8457 5.6724 17.7359 5.79181 17.7359 5.9391V7.62239C17.7359 7.76968 17.626 7.88909 17.4904 7.88909H15.9413C15.8057 7.88909 15.6958 8.00849 15.6958 8.15579V8.95239C15.6958 9.09969 15.8057 9.2191 15.9413 9.2191H17.4904C17.626 9.2191 17.7359 9.33851 17.7359 9.4858V11.1691C17.7359 11.3164 17.8457 11.4358 17.9813 11.4358H18.7145C18.8501 11.4358 18.9599 11.3164 18.9599 11.1691V9.4858C18.9599 9.33851 19.0698 9.2191 19.2054 9.2191H20.7545C20.8901 9.2191 21 9.09969 21 8.95239V8.15579C21 8.00849 20.8901 7.88909 20.7545 7.88909Z" fill="#1D1C49"/>
<path fill-rule="evenodd" clip-rule="evenodd" d="M14.3313 6.74932H11.0498L9.43983 5H4.60995C3.71643 5 3 5.77845 3 6.74932V17.2453C3 17.7092 3.16962 18.1541 3.47155 18.4822C3.77347 18.8103 4.18297 18.9946 4.60995 18.9946H17.398C17.398 18.9946 18.1228 19.0817 18.6055 18.5573C19.0882 18.0328 19.0995 17.2712 19.0995 17.2712V13.9124C17.9807 13.9201 16.8949 13.664 16.0166 13.1131C13.9316 11.8051 13.6301 9.21951 14.3313 6.74932Z" fill="#1D1C49"/>
</svg>

<svg xmlns="http://www.w3.org/2000/svg" width="24" height="24" fill="none"><path fill="#1D1C49" d="M20.755 7.89h-1.55c-.135 0-.245-.12-.245-.268V5.94c0-.147-.11-.267-.245-.267h-.734c-.135 0-.245.12-.245.267v1.683c0 .148-.11.267-.246.267h-1.549c-.135 0-.245.12-.245.267v.796c0 .148.11.267.245.267h1.55c.135 0 .245.12.245.267v1.683c0 .147.11.267.245.267h.733c.136 0 .246-.12.246-.267V9.486c0-.147.11-.267.245-.267h1.55c.135 0 .245-.12.245-.267v-.796c0-.148-.11-.267-.245-.267Z"/><path fill="#1D1C49" fill-rule="evenodd" d="M14.331 6.75H11.05L9.44 5H4.61C3.716 5 3 5.778 3 6.75v10.495c0 .464.17.91.472 1.237.301.328.711.513 1.138.513h12.788s.725.087 1.207-.438c.483-.524.494-1.286.494-1.286v-3.359c-1.118.008-2.204-.248-3.082-.799-2.085-1.308-2.387-3.893-1.686-6.364Z" clip-rule="evenodd"/></svg>
